src/status/24/notification-new-30-symbolic.svg

<?xml version="1.0" encoding="UTF-8" standalone="no"?>
<svg
   xmlns:dc="http://purl.org/dc/elements/1.1/"
   xmlns:cc="http://creativecommons.org/ns#"
   xmlns:rdf="http://www.w3.org/1999/02/22-rdf-syntax-ns#"
   xmlns:svg="http://www.w3.org/2000/svg"
   xmlns="http://www.w3.org/2000/svg"
   id="svg8"
   version="1.1"
   width="24"
   height="24">
  <metadata
     id="metadata14">
    <rdf:RDF>
      <cc:Work
         rdf:about="">
        <dc:format>image/svg+xml</dc:format>
        <dc:type
           rdf:resource="http://purl.org/dc/dcmitype/StillImage" />
        <dc:title />
      </cc:Work>
    </rdf:RDF>
  </metadata>
  <defs
     id="defs12" />
  <path
     id="path2-3-5-2-2-5-19"
     d="M 13.490234 5.0097656 C 13.100544 5.0126677 12.730778 5.2442701 12.572266 5.6269531 L 12.568359 5.6347656 C 10.764109 5.3809999 8.9686313 6.491285 8.2695312 8.1738281 C 8.2695312 8.1738281 6.3572175 12.793948 4.5859375 12.732422 C 4.5669375 12.736422 4.55155 12.751279 4.53125 12.755859 C 4.45415 12.777379 4.3823863 12.812071 4.3164062 12.857422 C 4.2894062 12.875482 4.2618812 12.88574 4.2382812 12.90625 C 4.1484812 12.9805 4.07761 13.076631 4.03125 13.183594 C 3.87206 13.567928 4.0541 14.003296 4.4375 14.162109 L 14.136719 18.181641 C 14.521059 18.340838 14.957987 18.159728 15.117188 17.775391 C 15.159987 17.363636936 15.177016 17.549628 15.166016 17.433594 C 15.164016 17.402364 15.152284 17.37427 15.146484 17.34375 C 15.131684 17.26484 15.104153 17.188943 15.064453 17.119141 C 15.054253 17.101931 15.054469 17.081113 15.042969 17.064453 C 13.746589 15.856393 15.662109 11.236328 15.662109 11.236328 C 16.357889 9.5513308 15.872536 7.4961921 14.416016 6.4003906 L 14.419922 6.3925781 C 14.631272 5.8823335 14.389106 5.2972859 13.878906 5.0859375 C 13.751346 5.0331004 13.620131 5.0087983 13.490234 5.0097656 z M 7.1191406 16.355469 C 6.9907506 17.257599 7.4887781 18.132367 8.3300781 18.482422 C 9.1729481 18.830196 10.144346 18.563442 10.691406 17.833984 L 7.1191406 16.355469 z "
     style="color:#bebebe;overflow:visible;isolation:auto;mix-blend-mode:normal;fill:#ffffff;marker:none" />
</svg>

<?xml version="1.0" encoding="UTF-8"?>
<svg id="svg8" width="24" height="24" version="1.1" xmlns="http://www.w3.org/2000/svg" xmlns:cc="http://creativecommons.org/ns#" xmlns:dc="http://purl.org/dc/elements/1.1/" xmlns:rdf="http://www.w3.org/1999/02/22-rdf-syntax-ns#">
 <metadata id="metadata14">
  <rdf:RDF>
   <cc:Work rdf:about="">
    <dc:format>image/svg+xml</dc:format>
    <dc:type rdf:resource="http://purl.org/dc/dcmitype/StillImage"/>
    <dc:title/>
   </cc:Work>
  </rdf:RDF>
 </metadata>
 <path id="path2-3-5-2-2-5-19" d="m13.49 5.0098c-0.38969 0.0029021-0.75946 0.2345-0.91797 0.61719l-0.003907 0.0078125c-1.8042-0.25377-3.5997 0.85652-4.2988 2.5391 0 0-1.9123 4.6201-3.6836 4.5586-0.019 4e-3 -0.034388 0.018857-0.054688 0.023437-0.0771 0.02152-0.14886 0.056212-0.21484 0.10156-0.027 0.01806-0.054525 0.028318-0.078125 0.048828-0.0898 0.07425-0.16067 0.17038-0.20703 0.27734-0.15919 0.38433 0.02285 0.8197 0.40625 0.97852l9.6992 4.0195c0.38434 0.1592 0.82127-0.021913 0.98047-0.40625 0.042799-0.41175 0.059828-0.22576 0.048828-0.3418-2e-3 -0.03123-0.013732-0.059324-0.019532-0.089844-0.0148-0.07891-0.042331-0.15481-0.082031-0.22461-0.0102-0.01721-0.009984-0.038028-0.021484-0.054688-1.2964-1.2081 0.61914-5.8281 0.61914-5.8281 0.69578-1.685 0.21043-3.7401-1.2461-4.8359l0.003906-0.0078125c0.21135-0.51024-0.030816-1.0953-0.54102-1.3066-0.12756-0.052837-0.25878-0.077139-0.38867-0.076172zm-6.3711 11.346c-0.12839 0.90213 0.36964 1.7769 1.2109 2.127 0.84287 0.34777 1.8143 0.08102 2.3613-0.64844l-3.5723-1.4785z" color="#bebebe" fill="#fff" style="isolation:auto;mix-blend-mode:normal"/>
</svg>
